svg/fluentui-system-icons/ic_fluent_person_money_24_regular.svg

<svg width="24" height="24" viewBox="0 0 24 24" fill="none" xmlns="http://www.w3.org/2000/svg">
<path d="M17.7545 14.0002C18.5344 14.0002 19.2215 14.3971 19.6249 15H13.5002C12.9372 15 12.4177 15.1861 11.9998 15.5002H6.25278C5.83919 15.5002 5.50391 15.8355 5.50391 16.2491V16.8267C5.50391 17.3624 5.69502 17.8805 6.04287 18.2878C7.13798 19.5703 8.77713 20.3016 11.0002 20.4657V21.5C11.0002 21.6614 11.0155 21.8192 11.0447 21.972C8.36767 21.8033 6.3058 20.9056 4.90219 19.2619C4.32242 18.583 4.00391 17.7195 4.00391 16.8267V16.2491C4.00391 15.007 5.01076 14.0002 6.25278 14.0002H17.7545ZM12.0004 2.00488C14.7618 2.00488 17.0004 4.24346 17.0004 7.00488C17.0004 9.76631 14.7618 12.0049 12.0004 12.0049C9.23894 12.0049 7.00036 9.76631 7.00036 7.00488C7.00036 4.24346 9.23894 2.00488 12.0004 2.00488ZM12.0004 3.50488C10.0674 3.50488 8.50036 5.07189 8.50036 7.00488C8.50036 8.93788 10.0674 10.5049 12.0004 10.5049C13.9334 10.5049 15.5004 8.93788 15.5004 7.00488C15.5004 5.07189 13.9334 3.50488 12.0004 3.50488ZM12.0002 17.5C12.0002 16.6716 12.6718 16 13.5002 16H21.5002C22.3287 16 23.0002 16.6716 23.0002 17.5V21.5C23.0002 22.3284 22.3287 23 21.5002 23H13.5002C12.6718 23 12.0002 22.3284 12.0002 21.5V17.5ZM22.0002 18C21.448 18 21.0002 17.5523 21.0002 17H20.0002C20.0002 18.1046 20.8957 19 22.0002 19V18ZM22.0002 20C20.8957 20 20.0002 20.8954 20.0002 22H21.0002C21.0002 21.4477 21.448 21 22.0002 21V20ZM14.0002 17C14.0002 17.5523 13.5525 18 13.0002 18V19C14.1048 19 15.0002 18.1046 15.0002 17H14.0002ZM15.0002 22C15.0002 20.8954 14.1048 20 13.0002 20V21C13.5525 21 14.0002 21.4477 14.0002 22H15.0002ZM19.2502 19.5C19.2502 18.5335 18.4667 17.75 17.5002 17.75C16.5337 17.75 15.7502 18.5335 15.7502 19.5C15.7502 20.4665 16.5337 21.25 17.5002 21.25C18.4667 21.25 19.2502 20.4665 19.2502 19.5Z" fill="#212121"/>
</svg>

<svg xmlns="http://www.w3.org/2000/svg" width="24" height="24"><path d="M17.755 14c.78 0 1.466.397 1.87 1H13.5c-.563 0-1.082.186-1.5.5H6.253a.749.749 0 0 0-.75.75v.577c0 .535.192 1.053.54 1.46 1.095 1.283 2.734 2.016 4.957 2.18V21.5c0 .161.015.32.045.472-2.677-.169-4.74-1.066-6.143-2.71a3.75 3.75 0 0 1-.898-2.435v-.578A2.249 2.249 0 0 1 6.253 14h11.502ZM12 2.005a5 5 0 1 1 0 10 5 5 0 0 1 0-10Zm0 1.5a3.5 3.5 0 1 0 0 7 3.5 3.5 0 0 0 0-7ZM12 17.5a1.5 1.5 0 0 1 1.5-1.5h8a1.5 1.5 0 0 1 1.5 1.5v4a1.5 1.5 0 0 1-1.5 1.5h-8a1.5 1.5 0 0 1-1.5-1.5v-4Zm10 .5a1 1 0 0 1-1-1h-1a2 2 0 0 0 2 2v-1Zm0 2a2 2 0 0 0-2 2h1a1 1 0 0 1 1-1v-1Zm-8-3a1 1 0 0 1-1 1v1a2 2 0 0 0 2-2h-1Zm1 5a2 2 0 0 0-2-2v1a1 1 0 0 1 1 1h1Zm4.25-2.5a1.75 1.75 0 1 0-3.5 0 1.75 1.75 0 0 0 3.5 0Z"/></svg>
